themes/Clearlooks/lxqt-runner/close.svg

<?xml version="1.0" encoding="UTF-8"?>
<svg version="1.1" viewBox="0 0 16 16" xmlns="http://www.w3.org/2000/svg" xmlns:cc="http://creativecommons.org/ns#" xmlns:dc="http://purl.org/dc/elements/1.1/" xmlns:rdf="http://www.w3.org/1999/02/22-rdf-syntax-ns#">
 <g transform="matrix(1.148 0 0 1.148 -47.103 -595.84)">
  <path d="m48 519.03c-3.8533 0-6.9688 3.1155-6.9688 6.9688 0 3.8533 3.1155 6.9688 6.9688 6.9688s6.9688-3.1155 6.9688-6.9688c0-3.8533-3.1155-6.9688-6.9688-6.9688zm-3 3.9688h1c0.01037-1.2e-4 0.02079-4.6e-4 0.03125 0 0.25495 0.0112 0.50987 0.12858 0.6875 0.3125l1.2812 1.2812 1.3125-1.2812c0.26562-0.2305 0.44667-0.3055 0.6875-0.3125h1v1c0 0.28647-0.03434 0.55065-0.25 0.75l-1.2812 1.2812 1.25 1.25c0.18819 0.18817 0.28124 0.45345 0.28125 0.71875v1h-1c-0.2653-1e-5 -0.53059-0.0931-0.71875-0.28125l-1.2812-1.2812-1.2812 1.2812c-0.18816 0.18819-0.45346 0.28125-0.71875 0.28125h-1v-1c-3e-6 -0.26529 0.09306-0.53058 0.28125-0.71875l1.2812-1.25-1.2812-1.2812c-0.21074-0.19463-0.30316-0.46925-0.28125-0.75z" color="#141414" fill="#141414"/>
 </g>
</svg>

<?xml version="1.0" encoding="UTF-8" standalone="no"?>
<svg
   xmlns:dc="http://purl.org/dc/elements/1.1/"
   xmlns:cc="http://creativecommons.org/ns#"
   xmlns:rdf="http://www.w3.org/1999/02/22-rdf-syntax-ns#"
   xmlns:svg="http://www.w3.org/2000/svg"
   xmlns="http://www.w3.org/2000/svg"
   xmlns:sodipodi="http://sodipodi.sourceforge.net/DTD/sodipodi-0.dtd"
   xmlns:inkscape="http://www.inkscape.org/namespaces/inkscape"
   sodipodi:docname="close.svg"
   height="100%"
   width="100%"
   inkscape:version="1.0 (4035a4fb49, 2020-05-01)"
   version="1.1"
   id="svg2"
   viewBox="0 0 16.000001 16.000001">
  <metadata
     id="metadata12">
    <rdf:RDF>
      <cc:Work
         rdf:about="">
        <dc:format>image/svg+xml</dc:format>
        <dc:type
           rdf:resource="http://purl.org/dc/dcmitype/StillImage" />
        <dc:title></dc:title>
      </cc:Work>
    </rdf:RDF>
  </metadata>
  <defs
     id="defs10">
    <filter
       id="filter81"
       inkscape:label="Fade to Black or White"
       style="color-interpolation-filters:sRGB;">
      <feColorMatrix
         id="feColorMatrix79"
         values="0 0 0 0 0 0 0 0 0 0 0 0 0 0 0 0 0 0 1 0" />
    </filter>
  </defs>
  <sodipodi:namedview
     inkscape:document-rotation="0"
     inkscape:current-layer="svg2"
     inkscape:window-maximized="1"
     inkscape:window-y="26"
     inkscape:window-x="0"
     inkscape:cy="6.9687653"
     inkscape:cx="-5.8787095"
     inkscape:zoom="41.719297"
     fit-margin-bottom="0"
     fit-margin-right="0"
     fit-margin-left="0"
     fit-margin-top="0"
     showgrid="false"
     id="namedview8"
     inkscape:window-height="1003"
     inkscape:window-width="1920"
     inkscape:pageshadow="2"
     inkscape:pageopacity="0"
     guidetolerance="10"
     gridtolerance="10"
     objecttolerance="10"
     borderopacity="1"
     bordercolor="#666666"
     pagecolor="#ffffff" />
  <g
     style="filter:url(#filter81)"
     id="g4"
     transform="matrix(1.1479821,0,0,1.1479821,-47.103141,-595.83858)">
    <path
       inkscape:connector-curvature="0"
       id="path6"
       d="m 48,519.03125 c -3.85327,0 -6.96875,3.11547 -6.96875,6.96875 0,3.85327 3.11548,6.96875 6.96875,6.96875 3.85327,0 6.96875,-3.11548 6.96875,-6.96875 0,-3.85328 -3.11548,-6.96875 -6.96875,-6.96875 z M 45,523 l 1,0 c 0.01037,-1.2e-4 0.02079,-4.6e-4 0.03125,0 0.254951,0.0112 0.50987,0.12858 0.6875,0.3125 L 48,524.59375 49.3125,523.3125 C 49.578125,523.082 49.759172,523.007 50,523 l 1,0 0,1 c 0,0.28647 -0.03434,0.55065 -0.25,0.75 l -1.28125,1.28125 1.25,1.25 C 50.906938,527.46942 50.999992,527.7347 51,528 l 0,1 -1,0 c -0.265301,-10e-6 -0.530586,-0.0931 -0.71875,-0.28125 L 48,527.4375 46.71875,528.71875 C 46.530586,528.90694 46.26529,529 46,529 l -1,0 0,-1 c -3e-6,-0.26529 0.09306,-0.53058 0.28125,-0.71875 l 1.28125,-1.25 L 45.28125,524.75 C 45.070508,524.55537 44.97809,524.28075 45,524 l 0,-1 z"
       style="line-height:normal;color:#bebebe;fill:#dedede;fill-opacity:1" />
  </g>
</svg>
